X: 1
T:Lads & Lasses. WCl.16
M:C
L:1/8
Q:160
S:William Clarke MS,Lincoln,1770.
R:reel
O:Lincoln
A:England
N:bar B1 as given in MS. -  as bar B3..BC..
Z:vmp.Barry Callaghan
K:G
g|dBAG FAAc|BGBd g2 fe|dBAG FAAc|BGAF G2::!
"sic"afed|g2 (g/2a/2b) a2 d2|g2 gb afed|(e/2f/2g) (f/2g/2a) g3:||
